X:1
T: Lady Gardner's Reel
C:
R:Reel
Q: 232
K:G
M:4/4
L:1/8
D|G2 BG dG BG|FG DA FA DA|G2 BG dG BG|eg fa ge dB|
G2 BG dG BG|FG DA FA DA|G2 BG dG BG|eg fa g2 g2|
|:gd Bd ed Bd|gd Bd ga ba|gd Bd ed Bd|ef fg a2 a2|
ga bg fg af|e^d eg ed Bd|cB cd ed Bd|1eg fa ge df:|2eg fa ge dB|
G2 BG dG BG|FG DA FA DA|G2 BG dG BG|eg fa ge dB|
G2 BG dG BG|FG DA FA DA|G2 BG dG BG|eg fa g3||
